X: 1
T: Sirun A\,h\vcik  [Dm]
T: Sweet Girl
O: Armenia
M: 4/4
L: 1/8
S: Pinewoods International Collection
K: Ddor
|: z"instr"C EF "Gm"G2 G2 | "(F)"~AG A{G}F "Gm"G4 | "(F)"GF AF "Cm"FE G_E | "Cm"_ED FE "Dm"D4 :|
|: {GABc}dz "voice"Bc "Gm"d2 d2 | "F(Dm)"c2 Bc A4 | "Gm"GF EF G2 AF | "Cm"F_E ED "Dm"D4 :|
|: z2 "voice"EF "Gm"G2 G2 | "(G)"AG AF G2 "Gm"z2 | "(F)"GF AF "Cm"FE G_E | "Cm"_ED FE "Dm"D4 :|
